icons/circle/48/synapse.svg

<svg xmlns="http://www.w3.org/2000/svg" viewBox="0 0 48 48">
 <defs>
  <linearGradient id="linearGradient3764" x1="1" x2="47" gradientUnits="userSpaceOnUse" gradientTransform="matrix(0,-1,1,0,-1.5e-6,47.999998)">
   <stop style="stop-color:#d9d9d9;stop-opacity:1"/>
   <stop offset="1" style="stop-color:#e3e3e3;stop-opacity:1"/>
  </linearGradient>
 </defs>
 <g>
  <path d="m 36.31 5 c 5.859 4.062 9.688 10.831 9.688 18.5 c 0 12.426 -10.07 22.5 -22.5 22.5 c -7.669 0 -14.438 -3.828 -18.5 -9.688 c 1.037 1.822 2.306 3.499 3.781 4.969 c 4.085 3.712 9.514 5.969 15.469 5.969 c 12.703 0 23 -10.298 23 -23 c 0 -5.954 -2.256 -11.384 -5.969 -15.469 c -1.469 -1.475 -3.147 -2.744 -4.969 -3.781 z m 4.969 3.781 c 3.854 4.113 6.219 9.637 6.219 15.719 c 0 12.703 -10.297 23 -23 23 c -6.081 0 -11.606 -2.364 -15.719 -6.219 c 4.16 4.144 9.883 6.719 16.219 6.719 c 12.703 0 23 -10.298 23 -23 c 0 -6.335 -2.575 -12.06 -6.719 -16.219 z" style="opacity:0.05"/>
  <path d="m 41.28 8.781 c 3.712 4.085 5.969 9.514 5.969 15.469 c 0 12.703 -10.297 23 -23 23 c -5.954 0 -11.384 -2.256 -15.469 -5.969 c 4.113 3.854 9.637 6.219 15.719 6.219 c 12.703 0 23 -10.298 23 -23 c 0 -6.081 -2.364 -11.606 -6.219 -15.719 z" style="opacity:0.1"/>
  <path d="m 31.25 2.375 c 8.615 3.154 14.75 11.417 14.75 21.13 c 0 12.426 -10.07 22.5 -22.5 22.5 c -9.708 0 -17.971 -6.135 -21.12 -14.75 a 23 23 0 0 0 44.875 -7 a 23 23 0 0 0 -16 -21.875 z" style="opacity:0.2"/>
 </g>
 <g>
  <path d="m 24 1 c 12.703 0 23 10.297 23 23 c 0 12.703 -10.297 23 -23 23 -12.703 0 -23 -10.297 -23 -23 0 -12.703 10.297 -23 23 -23 z" style="fill:url(#linearGradient3764);fill-opacity:1"/>
 </g>
 <g>
  <g>
   <g transform="translate(1,1)">
    <g style="opacity:0.1">
     <!-- color: #e3e3e3 -->
    </g>
   </g>
  </g>
 </g>
 <g>
  <g>
   <!-- color: #e3e3e3 -->
  </g>
 </g>
 <g>
  <path d="m 40.03 7.531 c 3.712 4.084 5.969 9.514 5.969 15.469 0 12.703 -10.297 23 -23 23 c -5.954 0 -11.384 -2.256 -15.469 -5.969 4.178 4.291 10.01 6.969 16.469 6.969 c 12.703 0 23 -10.298 23 -23 0 -6.462 -2.677 -12.291 -6.969 -16.469 z" style="opacity:0.1"/>
 </g>
 <path d="m 24 12 0 3.051 c -3.976 0.405 -7.329 3.137 -8.527 6.949 l 2.117 0 c 1.222 -3.02 4.152 -4.998 7.41 -5 3.258 0.002 6.19 1.979 7.412 5 l 2.125 0 c -1.203 -3.811 -4.56 -6.54 -8.537 -6.939 l 0 -3.061 z m 1 7 c -3.314 0 -6 2.686 -6 6 0.002 0.335 0.032 0.67 0.09 1 3.259 0 6.518 0 9.777 0 -0.455 1.764 -2.045 2.997 -3.867 3 -0.984 -0.001 -1.911 -0.37 -2.629 -1 l -2.547 0 c 1.057 1.826 3.01 2.997 5.176 3 3.314 0 6 -2.686 6 -6 -0.002 -0.335 -0.032 -0.67 -0.09 -1 l -9.777 0 c 0.455 -1.764 2.045 -2.997 3.867 -3 0.984 0.001 1.911 0.37 2.629 1 l 2.547 0 c -1.057 -1.826 -3.01 -2.997 -5.176 -3 z m -9.537 9 c 1.203 3.811 4.56 6.54 8.537 6.939 l 0 3.061 2 0 0 -3.051 c 3.976 -0.405 7.329 -3.137 8.527 -6.949 l -2.117 0 c -1.222 3.02 -4.152 4.998 -7.41 5 -3.258 -0.002 -6.19 -1.979 -7.412 -5 z" style="fill:#000;opacity:0.1;fill-opacity:1;stroke:none"/>
 <path d="m 23 11 0 3.051 c -3.976 0.405 -7.329 3.137 -8.527 6.949 l 2.117 0 c 1.222 -3.02 4.152 -4.998 7.41 -5 c 3.258 0.002 6.19 1.979 7.412 5 l 2.125 0 c -1.203 -3.811 -4.56 -6.54 -8.537 -6.939 l 0 -3.061 m -1 7 c -3.314 0 -6 2.686 -6 6 0.002 0.335 0.032 0.67 0.09 1 3.259 0 6.518 0 9.777 0 -0.455 1.764 -2.045 2.997 -3.867 3 -0.984 -0.001 -1.911 -0.37 -2.629 -1 l -2.547 0 c 1.057 1.826 3.01 2.997 5.176 3 3.314 0 6 -2.686 6 -6 -0.002 -0.335 -0.032 -0.67 -0.09 -1 l -9.777 0 c 0.455 -1.764 2.045 -2.997 3.867 -3 c 0.984 0.001 1.911 0.37 2.629 1 l 2.547 0 c -1.057 -1.826 -3.01 -2.997 -5.176 -3 m -9.537 9 c 1.203 3.811 4.56 6.54 8.537 6.939 l 0 3.061 l 2 0 0 -3.051 c 3.976 -0.405 7.329 -3.137 8.527 -6.949 l -2.117 0 c -1.222 3.02 -4.152 4.998 -7.41 5 -3.258 -0.002 -6.19 -1.979 -7.412 -5" style="fill:#199b8a;opacity:1;fill-opacity:1;stroke:none"/>
</svg>

<svg xmlns="http://www.w3.org/2000/svg" viewBox="0 0 48 48">
  <defs>
    <linearGradient id="a" x1="1" x2="47" gradientUnits="userSpaceOnUse" gradientTransform="rotate(-90 24 24)">
      <stop stop-color="#d9d9d9"/>
      <stop offset="1" stop-color="#e3e3e3"/>
    </linearGradient>
  </defs>
  <path d="M36.31 5c5.859 4.062 9.688 10.831 9.688 18.5 0 12.426-10.07 22.5-22.5 22.5-7.669 0-14.438-3.828-18.5-9.688a23.24 23.24 0 0 0 3.781 4.969 22.923 22.923 0 0 0 15.469 5.969c12.703 0 23-10.298 23-23a22.92 22.92 0 0 0-5.969-15.469A23.216 23.216 0 0 0 36.31 5zm4.969 3.781A22.911 22.911 0 0 1 47.498 24.5c0 12.703-10.297 23-23 23a22.909 22.909 0 0 1-15.719-6.219C12.939 45.425 18.662 48 24.998 48c12.703 0 23-10.298 23-23 0-6.335-2.575-12.06-6.719-16.219z" opacity=".05"/>
  <path d="M41.28 8.781a22.923 22.923 0 0 1 5.969 15.469c0 12.703-10.297 23-23 23A22.92 22.92 0 0 1 8.78 41.281 22.911 22.911 0 0 0 24.499 47.5c12.703 0 23-10.298 23-23A22.909 22.909 0 0 0 41.28 8.781z" opacity=".1"/>
  <path d="M31.25 2.375C39.865 5.529 46 13.792 46 23.505c0 12.426-10.07 22.5-22.5 22.5-9.708 0-17.971-6.135-21.12-14.75a23 23 0 0 0 44.875-7 23 23 0 0 0-16-21.875z" opacity=".2"/>
  <path d="M24 1c12.703 0 23 10.297 23 23S36.703 47 24 47 1 36.703 1 24 11.297 1 24 1z" fill="url(#a)"/>
  <path d="M40.03 7.531A22.922 22.922 0 0 1 45.999 23c0 12.703-10.297 23-23 23A22.92 22.92 0 0 1 7.53 40.031C11.708 44.322 17.54 47 23.999 47c12.703 0 23-10.298 23-23 0-6.462-2.677-12.291-6.969-16.469z" opacity=".1"/>
  <path d="M24 12v3.051A10 10 0 0 0 15.473 22h2.117A8 8 0 0 1 25 17a8 8 0 0 1 7.412 5h2.125A9.999 9.999 0 0 0 26 15.061V12zm1 7a6 6 0 0 0-6 6c.002.335.032.67.09 1h9.777A4 4 0 0 1 25 29a3.992 3.992 0 0 1-2.629-1h-2.547A5.992 5.992 0 0 0 25 31a6 6 0 0 0 6-6 5.987 5.987 0 0 0-.09-1h-9.777A4 4 0 0 1 25 21c.984.001 1.911.37 2.629 1h2.547A5.992 5.992 0 0 0 25 19zm-9.537 9A9.999 9.999 0 0 0 24 34.939V38h2v-3.051A10 10 0 0 0 34.527 28H32.41A8 8 0 0 1 25 33a8 8 0 0 1-7.412-5z" opacity=".1"/>
  <path d="M23 11v3.051A10 10 0 0 0 14.473 21h2.117A8 8 0 0 1 24 16a8 8 0 0 1 7.412 5h2.125A9.999 9.999 0 0 0 25 14.061V11m-1 7a6 6 0 0 0-6 6c.002.335.032.67.09 1h9.777A4 4 0 0 1 24 28a3.992 3.992 0 0 1-2.629-1h-2.547A5.992 5.992 0 0 0 24 30a6 6 0 0 0 6-6 5.987 5.987 0 0 0-.09-1h-9.777A4 4 0 0 1 24 20c.984.001 1.911.37 2.629 1h2.547A5.992 5.992 0 0 0 24 18m-9.537 9A9.999 9.999 0 0 0 23 33.939V37h2v-3.051A10 10 0 0 0 33.527 27H31.41A8 8 0 0 1 24 32a8 8 0 0 1-7.412-5" fill="#199b8a"/>
</svg>
